X:127
T:Prince of Mecklenburg's Jigg, The
M:6/8
L:1/8
B:Thompson's Compleat Collection of 200 Favourite Country Dances, vol. 2 (London, 1765)
Z:Transcribed and edited by Flynn Titford-Mock, 2007
Z:abc's:AK/Fiddler's Companion
K:A
a3 ece | fdf ece | a3 ece | fga B3 | a3 ece | fdf ece | fga gfe | Be^d e3 :|
|: e3 cBA | agf edc | f3 dcB | GAB E3 | a3 ece | fdf ece | agf edc | BAG A3 :|

